svg/aws-macie.svg

<?xml version="1.0" encoding="UTF-8"?>
<svg xmlns="http://www.w3.org/2000/svg" xmlns:xlink="http://www.w3.org/1999/xlink" width="32" height="32" viewBox="0 0 32 32">
<defs>
<linearGradient id="linear-pattern-0" gradientUnits="userSpaceOnUse" x1="0" y1="1" x2="1" y2="0" gradientTransform="matrix(32, 0, 0, 32, 0, 0)">
<stop offset="0" stop-color="rgb(74.117649%, 3.137255%, 8.627451%)" stop-opacity="1"/>
<stop offset="1" stop-color="rgb(100%, 32.156864%, 32.156864%)" stop-opacity="1"/>
</linearGradient>
</defs>
<rect x="-3.2" y="-3.2" width="38.4" height="38.4" fill="url(#linear-pattern-0)"/>
<path fill-rule="evenodd" fill="rgb(100%, 100%, 100%)" fill-opacity="1" d="M 22.121094 16.878906 C 21.464844 16.375 20.808594 15.875 20.148438 15.378906 C 20.769531 14.292969 21.472656 13.089844 21.828125 12.734375 C 22.910156 13.515625 25.46875 18.101562 25.929688 19.667969 C 25.085938 19.152344 23.410156 17.867188 22.121094 16.878906 M 15.941406 19.996094 C 15.703125 19.808594 15.28125 19.21875 14.804688 18.472656 C 14.90625 18.3125 15.015625 18.140625 15.128906 17.957031 C 15.820312 16.863281 16.957031 15.0625 17.40625 14.71875 C 17.667969 14.824219 18.203125 15.183594 18.851562 15.648438 C 17.988281 17.167969 16.53125 19.710938 15.941406 19.996094 M 12.777344 19.699219 C 12.503906 19.34375 12.082031 18.585938 11.804688 18.097656 C 10.992188 16.648438 10.714844 16.1875 10.242188 16.171875 L 10.222656 16.171875 C 9.855469 16.171875 9.484375 16.476562 8.019531 17.800781 C 7.574219 18.203125 6.960938 18.757812 6.449219 19.179688 C 7.359375 17.34375 9.386719 13.8125 10.195312 12.710938 C 10.582031 13.277344 11.265625 14.460938 11.839844 15.453125 C 12.570312 16.710938 13.152344 17.699219 13.628906 18.46875 C 13.300781 18.972656 12.988281 19.441406 12.777344 19.699219 M 26.425781 18.171875 C 25.894531 16.988281 25.015625 15.425781 24.132812 14.097656 C 22.535156 11.695312 22.0625 11.695312 21.808594 11.695312 C 21.203125 11.695312 20.667969 12.46875 19.339844 14.789062 C 18.257812 14.011719 17.730469 13.726562 17.394531 13.714844 L 17.371094 13.714844 C 16.726562 13.714844 16.089844 14.570312 14.277344 17.441406 C 14.257812 17.472656 14.242188 17.503906 14.222656 17.535156 C 13.6875 16.65625 13.140625 15.710938 12.710938 14.96875 C 10.882812 11.808594 10.671875 11.515625 10.226562 11.5 C 9.90625 11.492188 9.644531 11.480469 7.589844 15.011719 C 6.648438 16.628906 5.53125 18.6875 5.152344 19.636719 C 5.03125 19.9375 4.867188 20.347656 5.1875 20.621094 C 5.753906 21.101562 6.507812 20.5 8.699219 18.523438 C 9.183594 18.085938 9.808594 17.515625 10.152344 17.257812 C 10.363281 17.558594 10.695312 18.148438 10.929688 18.570312 C 11.859375 20.226562 12.230469 20.808594 12.765625 20.820312 C 13.121094 20.835938 13.445312 20.546875 14.214844 19.386719 C 15.054688 20.644531 15.480469 21 15.890625 21 L 15.898438 21 C 16.835938 20.988281 17.824219 19.46875 19.65625 16.246094 C 20.277344 16.707031 20.929688 17.207031 21.503906 17.648438 C 25.699219 20.871094 26.292969 21.210938 26.792969 20.679688 C 27.15625 20.289062 27.050781 19.5625 26.425781 18.171875 "/>
</svg>

<svg role="img" viewBox="0 0 32 32" xmlns="http://www.w3.org/2000/svg"><defs><linearGradient gradientTransform="scale(32)" gradientUnits="userSpaceOnUse" id="aws-macie_svg__a" x1="0" x2="1" y1="1" y2="0"><stop offset="0" stop-color="rgb(74.117649%, 3.137255%, 8.627451%)"/><stop offset="1" stop-color="rgb(100%, 32.156864%, 32.156864%)"/></linearGradient></defs><path d="M-3.2-3.2h38.4v38.4H-3.2z" fill="url(#aws-macie_svg__a)"/><path d="M22.121 16.879a239 239 0 0 0-1.973-1.5c.622-1.086 1.325-2.29 1.68-2.645 1.082.782 3.64 5.368 4.102 6.934-.844-.516-2.52-1.8-3.809-2.79m-6.18 3.118c-.238-.187-.66-.777-1.136-1.523q.152-.24.324-.516c.691-1.094 1.828-2.895 2.277-3.238.262.105.797.465 1.446.93-.864 1.519-2.32 4.062-2.91 4.347m-3.165-.297c-.273-.355-.695-1.113-.972-1.601-.813-1.45-1.09-1.91-1.563-1.926h-.02c-.367 0-.738.305-2.202 1.629-.446.402-1.06.957-1.57 1.379.91-1.836 2.937-5.367 3.745-6.47.387.567 1.07 1.75 1.645 2.743.73 1.258 1.312 2.246 1.789 3.016-.328.504-.64.972-.852 1.23m13.649-1.527c-.531-1.184-1.41-2.746-2.293-4.074-1.598-2.403-2.07-2.403-2.324-2.403-.606 0-1.141.774-2.47 3.094-1.081-.777-1.609-1.062-1.944-1.074h-.024c-.644 0-1.281.855-3.094 3.726-.02.032-.035.063-.054.094-.536-.879-1.082-1.824-1.512-2.566-1.828-3.16-2.04-3.453-2.484-3.469-.32-.008-.582-.02-2.637 3.512-.942 1.617-2.059 3.675-2.438 4.625-.12.3-.285.71.035.984.567.48 1.32-.121 3.512-2.098.485-.437 1.11-1.007 1.453-1.265.211.3.543.89.778 1.312.93 1.657 1.3 2.239 1.836 2.25.355.016.68-.273 1.449-1.433C15.055 20.645 15.48 21 15.89 21h.007c.938-.012 1.926-1.531 3.758-4.754.621.461 1.274.961 1.848 1.402 4.195 3.223 4.789 3.563 5.289 3.032.363-.39.258-1.117-.367-2.508" fill="rgb(100%, 100%, 100%)" fill-rule="evenodd"/></svg>
